static/src/images/airhorn-counter.svg

<?xml version="1.0" encoding="UTF-8" standalone="no"?>
<svg width="61px" height="44px" viewBox="0 0 61 44" version="1.1" xmlns="http://www.w3.org/2000/svg" xmlns:xlink="http://www.w3.org/1999/xlink" xmlns:sketch="http://www.bohemiancoding.com/sketch/ns">
    <!-- Generator: Sketch 3.5.2 (25235) - http://www.bohemiancoding.com/sketch -->
    <title>airhorn-counter</title>
    <desc>Created with Sketch.</desc>
    <defs>
        <path id="path-1" d="M0.133,21.806 C0.133,33.404 9.535,42.807 21.133,42.807 L21.133,42.807 C32.731,42.807 42.133,33.404 42.133,21.806 L42.133,21.806 C42.133,10.209 32.731,0.807 21.133,0.807 L21.133,0.807 C9.535,0.807 0.133,10.209 0.133,21.806"></path>
        <path id="path-3" d="M0.133,21.806 C0.133,33.404 9.535,42.807 21.133,42.807 L21.133,42.807 C32.731,42.807 42.133,33.404 42.133,21.806 L42.133,21.806 C42.133,10.209 32.731,0.807 21.133,0.807 L21.133,0.807 C9.535,0.807 0.133,10.209 0.133,21.806 L0.133,21.806 Z"></path>
    </defs>
    <g id="!airhorn" stroke="none" stroke-width="1" fill="none" fill-rule="evenodd" sketch:type="MSPage">
        <g id="Airhorn---Desktop" sketch:type="MSArtboardGroup" transform="translate(-19.000000, -963.000000)">
            <g id="Group-2" sketch:type="MSLayerGroup" transform="translate(20.000000, 963.000000)">
                <g id="airhorn-counter">
                    <g id="Group-24">
                        <g id="Group-3">
                            <mask id="mask-2" sketch:name="Clip 2" fill="white">
                                <use xlink:href="#path-1"></use>
                            </mask>
                            <g id="Clip-2"></g>
                            <path d="M43.3627,21.8065 C43.3627,34.0835 33.4097,44.0365 21.1327,44.0365 C8.8557,44.0365 -1.0963,34.0835 -1.0963,21.8065 C-1.0963,9.5295 8.8557,-0.4235 21.1327,-0.4235 C33.4097,-0.4235 43.3627,9.5295 43.3627,21.8065" id="Fill-1" fill="#9B9B9B" sketch:type="MSShapeGroup" mask="url(#mask-2)"></path>
                        </g>
                        <mask id="mask-4" sketch:name="Clip 5" fill="white">
                            <use xlink:href="#path-3"></use>
                        </mask>
                        <g id="Clip-5"></g>
                        <path d="M17.262,43.273 L10.462,43.273 L10.462,21.831 L17.262,21.831 L17.262,43.273 Z" id="Fill-4" fill="#FF7555" sketch:type="MSShapeGroup" mask="url(#mask-4)"></path>
                        <path d="M14.464,43.273 L17.262,43.273 L17.262,21.831 L14.464,21.831 L14.464,43.273 Z" id="Fill-6" fill="#F96335" sketch:type="MSShapeGroup" mask="url(#mask-4)"></path>
                        <path d="M17.262,43.273 L10.462,43.273 L10.462,21.831 L17.262,21.831 L17.262,43.273 Z" id="Stroke-7" stroke="#5E4634" stroke-linecap="round" stroke-linejoin="round" sketch:type="MSShapeGroup" mask="url(#mask-4)"></path>
                        <path d="M14.4156,35.7592 L14.4156,25.6332" id="Stroke-8" stroke="#5E4634" stroke-linecap="round" stroke-linejoin="round" sketch:type="MSShapeGroup" mask="url(#mask-4)"></path>
                        <path d="M22.7387,33.5719 L17.4837,29.1699 L17.4257,29.1699 C16.8047,29.6629 16.1307,30.0949 15.4197,30.5079 C14.8957,31.0569 14.0117,31.1399 13.3387,30.7929 C13.3057,30.7759 13.2737,30.7539 13.2407,30.7349 C13.0767,30.6749 12.9217,30.5799 12.7747,30.4599 C12.7327,30.4339 12.6887,30.4099 12.6457,30.3839 C12.6377,30.3789 12.6297,30.3739 12.6217,30.3689 C12.6157,30.3659 12.6097,30.3629 12.6027,30.3599 C12.5187,30.3319 12.3397,30.2599 12.3277,30.2559 C11.7677,30.0649 11.3627,29.6679 11.1867,29.1699 L10.3897,29.1699 L5.1337,33.5719 C4.5307,34.0769 4.1817,34.8239 4.1817,35.6109 L4.1817,68.2789 C4.1817,69.3059 4.7677,70.2389 5.6947,70.6809 C7.3297,71.4599 10.2087,72.4999 13.9367,72.4999 C17.6657,72.4999 20.5457,71.4589 22.1807,70.6799 C23.1067,70.2379 23.6907,69.3049 23.6907,68.2789 L23.6907,35.6109 C23.6907,34.8239 23.3417,34.0769 22.7387,33.5719" id="Fill-9" fill="#CCCCCC" sketch:type="MSShapeGroup" mask="url(#mask-4)"></path>
                        <path d="M17.4833,29.1695 L15.7533,30.3695 C14.9313,30.9395 13.8603,31.0035 12.9763,30.5365 L10.3893,29.1695 L5.1343,33.5715 C4.5303,34.0775 4.1823,34.8245 4.1823,35.6115 L4.1823,68.2795 C4.1823,69.3065 4.7683,70.2385 5.6953,70.6805 C7.3293,71.4605 10.2093,72.5005 13.9363,72.5005 C17.6653,72.5005 20.5463,71.4595 22.1803,70.6795 C23.1063,70.2375 23.6903,69.3055 23.6903,68.2795 L23.6903,35.6115 C23.6903,34.8245 23.3423,34.0775 22.7383,33.5715 L17.4833,29.1695 L17.4833,29.1695 Z" id="Stroke-10" stroke="#5E4634" stroke-linecap="round" stroke-linejoin="round" sketch:type="MSShapeGroup" mask="url(#mask-4)"></path>
                        <path d="M4.3197,35.1401 C6.0527,40.0111 21.8197,40.0051 23.5527,35.1391" id="Stroke-11" stroke="#5E4634" stroke-linecap="round" stroke-linejoin="round" sketch:type="MSShapeGroup" mask="url(#mask-4)"></path>
                        <path d="M25.8059,16.1591 C24.7279,19.1211 21.4539,20.6471 18.4919,19.5701 C15.5309,18.4921 14.0039,15.2171 15.0809,12.2561 C16.1589,9.2941 19.4339,7.7671 22.3949,8.8451 C25.3569,9.9231 26.8839,13.1971 25.8059,16.1591" id="Fill-12" fill="#CCCCCC" sketch:type="MSShapeGroup" mask="url(#mask-4)"></path>
                        <path d="M25.6106,16.088 C24.5716,18.942 21.4166,20.413 18.5626,19.374 C15.7096,18.336 14.2386,15.18 15.2766,12.327 C16.3156,9.473 19.4706,8.002 22.3246,9.04 C25.1776,10.079 26.6496,13.234 25.6106,16.088 L25.6106,16.088 Z" id="Stroke-13" stroke="#5F4735" stroke-linecap="round" stroke-linejoin="round" sketch:type="MSShapeGroup" mask="url(#mask-4)"></path>
                        <path d="M23.7182,35.3883 L0.2562,27.7153 C-3.1548,26.6003 -3.4838,21.9033 -0.2608,20.3243 L21.9052,9.4603" id="Fill-14" fill="#F96335" sketch:type="MSShapeGroup" mask="url(#mask-4)"></path>
                        <path d="M39.2704,21.2737 C38.7314,13.5637 32.9364,7.6877 26.3274,8.1497 C19.7184,8.6117 14.7984,15.2367 15.3374,22.9477 C15.8764,30.6577 21.6714,36.5337 28.2804,36.0717 C34.8894,35.6097 39.8094,28.9837 39.2704,21.2737" id="Fill-15" fill="#F96335" sketch:type="MSShapeGroup" mask="url(#mask-4)"></path>
                        <path d="M39.2704,21.2737 C38.7314,13.5637 32.9364,7.6877 26.3274,8.1497 C19.7184,8.6117 14.7984,15.2367 15.3374,22.9477 C15.8764,30.6577 21.6714,36.5337 28.2804,36.0717 C34.8894,35.6097 39.8094,28.9837 39.2704,21.2737 L39.2704,21.2737 Z" id="Stroke-16" stroke="#5F4735" stroke-linecap="round" stroke-linejoin="round" sketch:type="MSShapeGroup" mask="url(#mask-4)"></path>
                        <path d="M20.6082,22.5786 C20.9552,27.5356 24.6802,31.3126 28.9282,31.0156 C33.1772,30.7186 36.3402,26.4596 35.9942,21.5026 C35.6472,16.5456 31.9222,12.7686 27.6732,13.0656 C23.4252,13.3626 20.2612,17.6216 20.6082,22.5786" id="Fill-17" fill="#E05332" sketch:type="MSShapeGroup" mask="url(#mask-4)"></path>
                        <path d="M20.6082,22.5786 C20.9552,27.5356 24.6802,31.3126 28.9282,31.0156 C33.1772,30.7186 36.3402,26.4596 35.9942,21.5026 C35.6472,16.5456 31.9222,12.7686 27.6732,13.0656 C23.4252,13.3626 20.2612,17.6216 20.6082,22.5786 L20.6082,22.5786 Z" id="Stroke-18" stroke="#5F4735" stroke-linecap="round" stroke-linejoin="round" sketch:type="MSShapeGroup" mask="url(#mask-4)"></path>
                        <path d="M20.632,22.9189 C21.641,19.3169 24.439,16.6379 27.906,16.3949 C31.373,16.1529 34.517,18.4169 36.018,21.8429" id="Stroke-19" stroke="#5F4735" stroke-linecap="round" stroke-linejoin="round" sketch:type="MSShapeGroup" mask="url(#mask-4)"></path>
                        <path d="M23.7182,35.3883 L0.2562,27.7153 C-3.1548,26.6003 -3.4838,21.9033 -0.2608,20.3243 L21.9052,9.4603" id="Stroke-20" stroke="#5F4735" stroke-linecap="round" stroke-linejoin="round" sketch:type="MSShapeGroup" mask="url(#mask-4)"></path>
                        <path d="M13.4832,19.1848 C12.4442,22.0388 9.2882,23.5108 6.4342,22.4718 C3.5792,21.4328 2.1072,18.2768 3.1462,15.4228 C4.1852,12.5678 7.3412,11.0968 10.1962,12.1358 C13.0502,13.1748 14.5222,16.3308 13.4832,19.1848" id="Fill-21" fill="#CCCCCC" sketch:type="MSShapeGroup" mask="url(#mask-4)"></path>
                        <path d="M13.4832,19.1848 C12.4442,22.0388 9.2882,23.5108 6.4342,22.4718 C3.5792,21.4328 2.1072,18.2768 3.1462,15.4228 C4.1852,12.5678 7.3412,11.0968 10.1962,12.1358 C13.0502,13.1748 14.5222,16.3308 13.4832,19.1848 L13.4832,19.1848 Z" id="Stroke-22" stroke="#5F4735" stroke-linecap="round" stroke-linejoin="round" sketch:type="MSShapeGroup" mask="url(#mask-4)"></path>
                        <path d="M9.2986,16.845 C9.8816,18.096 9.3406,19.583 8.0896,20.166 C6.8386,20.749 5.3516,20.208 4.7686,18.957 C4.1856,17.706 4.7266,16.22 5.9776,15.636 C7.2286,15.053 8.7156,15.594 9.2986,16.845" id="Fill-23" fill="#5F4735" sketch:type="MSShapeGroup" mask="url(#mask-4)"></path>
                    </g>
                    <g id="Group-33" sketch:type="MSShapeGroup">
                        <path d="M42.1331,21.8065 C42.1331,33.4045 32.7311,42.8065 21.1331,42.8065 C9.5351,42.8065 0.1331,33.4045 0.1331,21.8065 C0.1331,10.2085 9.5351,0.8065 21.1331,0.8065 C32.7311,0.8065 42.1331,10.2085 42.1331,21.8065 L42.1331,21.8065 Z" id="Stroke-25" stroke="#5E4634" stroke-linecap="round" stroke-linejoin="round"></path>
                        <path d="M54.4178,4.9275 C53.8808,5.0695 53.5048,5.2695 53.0598,5.6225 C52.8638,5.7775 52.6918,5.9575 52.5058,6.1235 C52.3678,6.2625 52.2208,6.3915 52.0638,6.5095 C51.7118,6.9305 51.2668,6.9065 50.7298,6.4355 C51.2628,5.8855 50.4428,5.0665 49.8898,5.5955 C48.8098,6.9635 47.6718,8.2825 46.6068,9.6625 C46.3298,10.0225 46.9188,10.4515 47.2268,10.1415 C48.0788,9.2795 48.8998,8.3885 49.7268,7.5025 C49.8798,7.7285 50.0868,7.9265 50.3498,8.0615 C52.1088,8.9645 53.3518,6.5875 54.7518,6.1405 C55.5198,5.8955 55.2058,4.7195 54.4178,4.9275" id="Fill-27" fill="#F96335"></path>
                        <path d="M53.5634,37.6161 C52.6674,37.5821 51.8414,37.4601 51.0184,37.2191 C51.3224,36.8841 51.5614,36.5011 51.7384,36.0371 C51.8594,35.7211 51.5504,35.3701 51.2364,35.3781 C49.8834,35.4121 48.6204,35.2091 47.3294,34.8041 C46.9034,34.6701 46.7524,35.3011 47.1494,35.4591 C48.2064,35.8801 49.2974,36.1481 50.4144,36.3121 C50.2244,36.5641 49.9914,36.7711 49.6864,36.9551 C49.2544,37.2161 49.4064,37.7641 49.8144,37.9351 C51.0174,38.4401 52.2574,38.7171 53.5634,38.7101 C54.2694,38.7061 54.2654,37.6421 53.5634,37.6161" id="Fill-29" fill="#F96335"></path>
                        <path d="M58.5059,21.2776 C57.4969,21.8426 54.8929,23.8356 54.4709,21.3456 C54.4069,20.9676 53.9499,20.8776 53.6619,21.0166 C52.4469,21.6006 51.2129,22.1426 50.0179,22.7666 C49.6599,22.9526 49.9059,23.5516 50.2949,23.4236 C51.3939,23.0586 52.4719,22.6336 53.5549,22.2246 C54.3849,24.5686 57.7449,23.5136 59.1309,22.0876 C59.5389,21.6676 59.0209,20.9896 58.5059,21.2776" id="Fill-31" fill="#F96335"></path>
                    </g>
                </g>
            </g>
        </g>
    </g>
</svg>

<svg width="61" height="44" viewBox="0 0 61 44" xmlns="http://www.w3.org/2000/svg" xmlns:xlink="http://www.w3.org/1999/xlink">
  <defs>
    <path id="a" d="M.133 21.806c0 11.598 9.402 21 21 21s21-9.402 21-21c0-11.597-9.402-21-21-21s-21 9.403-21 21"/>
    <path id="c" d="M.133 21.806c0 11.598 9.402 21 21 21s21-9.402 21-21c0-11.597-9.402-21-21-21s-21 9.403-21 21z"/>
  </defs>
  <g fill="none" fill-rule="evenodd">
    <g transform="translate(1)">
      <mask id="b" fill="#fff">
        <use xlink:href="#a"/>
      </mask>
      <path d="M43.363 21.806c0 12.277-9.953 22.23-22.23 22.23-12.277 0-22.23-9.953-22.23-22.23 0-12.277 9.953-22.23 22.23-22.23 12.277 0 22.23 9.954 22.23 22.23" fill="#9B9B9B" mask="url(#b)"/>
      <mask id="d" fill="#fff">
        <use xlink:href="#c"/>
      </mask>
      <path d="M17.262 43.273h-6.8V21.83h6.8v21.443z" fill="#FF7555" mask="url(#d)"/>
      <path d="M14.464 43.273h2.798V21.83h-2.798v21.443z" fill="#F96335" mask="url(#d)"/>
      <path d="M17.262 43.273h-6.8V21.83h6.8v21.443zM14.416 35.76V25.632" stroke="#5E4634" stroke-linecap="round" stroke-linejoin="round" mask="url(#d)"/>
      <path d="M22.74 33.572l-5.256-4.402h-.058c-.62.493-1.295.925-2.006 1.338-.524.55-1.408.632-2.08.285-.034-.017-.066-.04-.1-.058-.163-.06-.318-.155-.465-.275-.042-.026-.086-.05-.13-.076l-.023-.015-.02-.01c-.083-.028-.262-.1-.274-.104-.56-.19-.965-.588-1.14-1.086h-.798l-5.256 4.402c-.603.505-.952 1.252-.952 2.04v32.667c0 1.026.586 1.96 1.513 2.4 1.635.78 4.514 1.82 8.242 1.82 3.73 0 6.61-1.04 8.244-1.82.927-.442 1.51-1.375 1.51-2.4V35.61c0-.786-.348-1.533-.95-2.038" fill="#CCC" mask="url(#d)"/>
      <path d="M17.483 29.17l-1.73 1.2c-.822.57-1.893.633-2.777.166L10.39 29.17l-5.256 4.4c-.604.508-.952 1.255-.952 2.04v32.67c0 1.026.586 1.96 1.513 2.4 1.634.78 4.514 1.82 8.24 1.82 3.73 0 6.61-1.04 8.245-1.82.926-.443 1.51-1.375 1.51-2.4V35.61c0-.785-.348-1.532-.952-2.038l-5.255-4.403zM4.32 35.14c1.733 4.87 17.5 4.865 19.233 0" stroke="#5E4634" stroke-linecap="round" stroke-linejoin="round" mask="url(#d)"/>
      <path d="M25.806 16.16c-1.078 2.96-4.352 4.487-7.314 3.41-2.96-1.078-4.488-4.353-3.41-7.314 1.077-2.962 4.352-4.49 7.313-3.41 2.962 1.077 4.49 4.35 3.41 7.313" fill="#CCC" mask="url(#d)"/>
      <path d="M25.61 16.088c-1.038 2.854-4.193 4.325-7.047 3.286-2.853-1.038-4.324-4.194-3.286-7.047 1.04-2.854 4.194-4.325 7.048-3.287 2.853 1.04 4.325 4.194 3.286 7.048z" stroke="#5F4735" stroke-linecap="round" stroke-linejoin="round" mask="url(#d)"/>
      <path d="M23.718 35.388L.256 27.715c-3.41-1.115-3.74-5.812-.517-7.39L21.904 9.46" fill="#F96335" mask="url(#d)"/>
      <path d="M39.27 21.274c-.54-7.71-6.334-13.586-12.943-13.124-6.61.462-11.53 7.087-10.99 14.798.54 7.71 6.334 13.586 12.943 13.124 6.61-.462 11.53-7.088 10.99-14.798" fill="#F96335" mask="url(#d)"/>
      <path d="M39.27 21.274c-.54-7.71-6.334-13.586-12.943-13.124-6.61.462-11.53 7.087-10.99 14.798.54 7.71 6.334 13.586 12.943 13.124 6.61-.462 11.53-7.088 10.99-14.798z" stroke="#5F4735" stroke-linecap="round" stroke-linejoin="round" mask="url(#d)"/>
      <path d="M20.608 22.58c.347 4.956 4.072 8.733 8.32 8.436 4.25-.297 7.412-4.556 7.066-9.513-.347-4.957-4.072-8.734-8.32-8.437-4.25.297-7.413 4.556-7.066 9.513" fill="#E05332" mask="url(#d)"/>
      <path d="M20.608 22.58c.347 4.956 4.072 8.733 8.32 8.436 4.25-.297 7.412-4.556 7.066-9.513-.347-4.957-4.072-8.734-8.32-8.437-4.25.297-7.413 4.556-7.066 9.513z" stroke="#5F4735" stroke-linecap="round" stroke-linejoin="round" mask="url(#d)"/>
      <path d="M20.632 22.92c1.01-3.603 3.807-6.282 7.274-6.525 3.467-.242 6.61 2.022 8.112 5.448" stroke="#5F4735" stroke-linecap="round" stroke-linejoin="round" mask="url(#d)"/>
      <path d="M23.718 35.388L.256 27.715c-3.41-1.115-3.74-5.812-.517-7.39L21.904 9.46" stroke="#5F4735" stroke-linecap="round" stroke-linejoin="round" mask="url(#d)"/>
      <path d="M13.483 19.185c-1.04 2.854-4.195 4.326-7.05 3.287-2.854-1.04-4.326-4.195-3.287-7.05 1.04-2.854 4.195-4.325 7.05-3.286 2.854 1.04 4.326 4.195 3.287 7.05" fill="#CCC" mask="url(#d)"/>
      <path d="M13.483 19.185c-1.04 2.854-4.195 4.326-7.05 3.287-2.854-1.04-4.326-4.195-3.287-7.05 1.04-2.854 4.195-4.325 7.05-3.286 2.854 1.04 4.326 4.195 3.287 7.05z" stroke="#5F4735" stroke-linecap="round" stroke-linejoin="round" mask="url(#d)"/>
      <path d="M9.3 16.845c.582 1.25.04 2.738-1.21 3.32-1.25.584-2.738.043-3.32-1.208-.584-1.25-.043-2.737 1.208-3.32 1.25-.584 2.738-.043 3.32 1.208" fill="#5F4735" mask="url(#d)"/>
    </g>
    <path d="M43.133 21.806c0 11.598-9.402 21-21 21s-21-9.4-21-21c0-11.598 9.402-21 21-21s21 9.402 21 21z" stroke="#5E4634" stroke-linecap="round" stroke-linejoin="round"/>
    <path d="M55.418 4.928c-.537.14-.913.34-1.358.694-.196.155-.368.335-.554.502-.138.14-.285.268-.442.386-.352.42-.797.397-1.334-.074.533-.55-.287-1.37-.84-.84-1.08 1.367-2.218 2.687-3.283 4.066-.277.36.312.79.62.48.852-.862 1.673-1.753 2.5-2.64.153.227.36.425.623.56 1.76.902 3.002-1.474 4.402-1.92.768-.247.454-1.423-.334-1.215M54.563 37.616c-.896-.034-1.722-.156-2.545-.397.304-.336.543-.72.72-1.183.12-.316-.188-.667-.502-.66-1.353.035-2.616-.168-3.907-.573-.427-.134-.578.497-.18.655 1.056.42 2.147.688 3.264.852-.19.252-.423.46-.728.643-.432.26-.28.81.128.98 1.203.505 2.443.782 3.75.775.705-.004.7-1.068 0-1.094M59.506 21.278c-1.01.565-3.613 2.558-4.035.068-.063-.378-.52-.468-.808-.33-1.215.585-2.45 1.127-3.644 1.75-.358.187-.112.786.277.658 1.1-.365 2.177-.79 3.26-1.2.83 2.345 4.19 1.29 5.576-.136.41-.42-.11-1.098-.624-.81" fill="#F96335"/>
  </g>
</svg>
